!!!!SEGMENT: pl-kk--kk-i-279--001_anonim--verbum-supernum-prodiens.krn
!!!cenid: 17xx:2089
!!!COM: Anonim
!!!COM-rismid: pe30004985
!!!CDT:
!!!CNT:
!!!OTL: Verbum supernum prodiens
!!!PDT:
!!!AGN: Sacred
!!!SMS-siglum: PL-Kk
!!!SMS-shelfmark: Kk.I.279
!!!SMS-shelfwork: 001 W
!!!SMS-variant: B: PL-Kk I 279 0008-0009
!!!SMS-altvar: B: PL-Kk I 279 0010
!!!NIFC-rismid: 1001147341
!!!URL-scan: http://repozytorium.nifc.pl/skany/pl-kk-nut--i-279
!!!ONB-nifc: UWAGA: utwory w zbiorze: 1. Verbum supernum prodiens, 2. Salutis humanae sator
**kern	**fba	**text	**text	**kern	**text	**text	**kern	**text	**text	**kern	**text	**text
*part4	*part4	*part4	*part4	*part3	*part3	*part3	*part2	*part2	*part2	*part1	*part1	*part1
*staff4	*staff4	*staff4	*staff4	*staff3	*staff3	*staff3	*staff2	*staff2	*staff2	*staff1	*staff1	*staff1
*Ibass	*	*	*	*Itenor	*	*	*Ialto	*	*	*Isoprn	*	*
*I"[Bassus]	*	*	*	*I"[Tenor]	*	*	*I"Alto	*	*	*I"Canto	*	*
*I'B	*	*	*	*I'T	*	*	*I'A	*	*	*I'S	*	*
*clefF4	*	*	*	*clefC4	*	*	*clefC3	*	*	*clefC1	*	*
*k[]	*	*	*	*k[]	*	*	*k[]	*	*	*k[]	*	*
*a:	*	*	*	*a:	*	*	*a:	*	*	*a:	*	*
*M3/1	*	*	*	*M3/1	*	*	*M3/1	*	*	*M3/1	*	*
=1-	=1-	=1-	=1-	=1-	=1-	=1-	=1-	=1-	=1-	=1-	=1-	=1-
!	!	!	!	!	!	!	!LO:TX:t=P:problem:nazwa partii słabo widoczna (skan 0004)	!	!	!	!	!
!LO:TX:t=P:problem:przed kluczem inicjał V	!	!	!	!LO:TX:t=P:problem:przed kluczem inicjał V	!	!	!LO:TX:t=P:problem:przed kluczem inicjał V	!	!	!LO:TX:t=P:problem:przed kluczem inicjał V	!	!
1A	.	1 Ver-	5 O	1c	1 Ver-	5. O	1e	1 Ver-	5 O	1a	1 Ver-	5 O
1A	.	-bum	Sa-	1A	-bum	Sa-	1e	-bum	Sa-	1cc	-bum	Sa-
!LO:TX:t=P:problem:kreska pseudotaktowa	!	!	!	!LO:TX:t=P:problem:kreska pseudotaktowa	!	!	!LO:TX:t=P:problem:kreska pseudotaktowa	!	!	!LO:TX:t=P:problem:kreska pseudotaktowa	!	!
1G	6	Su-	-lu-	1B	Su-	-lu-	1e	Su-	-lu-	1b	Su-	-lu-
=2-	=2-	=2-	=2-	=2-	=2-	=2-	=2-	=2-	=2-	=2-	=2-	=2-
0F	.	-per-	-ta-	0c	-per-	-ta-	0f	-per-	-ta-	0a	-per-	-ta-
!LO:TX:t=P:problem:kreska pseudotaktowa	!	!	!	!LO:TX:t=P:problem:kreska pseudotaktowa	!	!	!LO:TX:t=P:problem:kreska pseudotaktowa	!	!	!LO:TX:t=P:problem:kreska pseudotaktowa	!	!
1D	.	-nu(m)	-ris	1d	-nu(m)	-ris	1f	-nu(m)	-ris	1b	-num	-ris
=3-	=3-	=3-	=3-	=3-	=3-	=3-	=3-	=3-	=3-	=3-	=3-	=3-
1.E	.	pro-	ho-	1.B	pro-	ho-	1.e	pro-	Ho-	1.g#X	pro-	Ho-
2E\	.	-di-	-sti-	2B\	-di-	-sti-	2e\	-di-	-sti-	2g#/	-di-	-sti-
!LO:TX:t=P:problem:kreska pseudotaktowa	!	!	!	!LO:TX:t=P:problem:kreska pseudotaktowa	!	!	!LO:TX:t=P:problem:kreska pseudotaktowa	!	!	!LO:TX:t=P:problem:kreska pseudotaktowa	!	!
1E	.	-ens	-a	1B	-ens	-a	1e	-ens	-a	1g#	-ens	-a
=4-	=4-	=4-	=4-	=4-	=4-	=4-	=4-	=4-	=4-	=4-	=4-	=4-
!	!	!	!	!LO:TX:t=1.	!	!	!	!	!	!	!	!
!	!	!	!	!LO:TX:t=P:problem:kreska pseudotaktowa	!	!	!	!	!	!	!	!
1D#X	.	Nec	quae	0.r	.	.	1f#X	Nec	quae	1b	Nec	quae
1.D#	.	Pat-	Cae-	.	.	.	1.f#	Pat-	Cae-	1.b	Pat-	Cae-
!	!	!	!	!	!	!	!LO:SIC:v:s=2f#	!	!	!	!	!
!LO:TX:t=P:problem:kreska pseudotaktowa	!	!	!	!	!	!	!LO:TX:t=P:problem:kreska pseudotaktowa	!	!	!LO:TX:t=P:problem:kreska pseudotaktowa	!	!
2D#/	.	-ris	-li	.	.	.	2e\	-ris	-li	2a\	-ris	-li
=5-	=5-	=5-	=5-	=5-	=5-	=5-	=5-	=5-	=5-	=5-	=5-	=5-
1E	.	lin-	pan-	1B	Nec	quae	0e	lin-	pan-	0g#X	lin-	pan-
1.E	.	-quens	-dis	1.B	Pat-	Cae-	.	.	.	.	.	.
!	!	!	!	!	!	!	!LO:TX:t=P:problem:kreska pseudotaktowa	!	!	!LO:TX:t=P:problem:kreska pseudotaktowa	!	!
.	.	.	.	.	.	.	1e	-quenſ	-dis	1g#	-quens	-dis
*	*	*ij	*ij	*	*	*	*	*	*	*	*	*
!LO:TX:t=P:problem:kreska pseudotaktowa	!	!	!	!LO:TX:t=P:problem:kreska pseudotaktowa	!	!	!	!	!	!	!	!
2Dny/	.	nec	quae	2B\	-ris	-li	.	.	.	.	.	.
=6-	=6-	=6-	=6-	=6-	=6-	=6-	=6-	=6-	=6-	=6-	=6-	=6-
*	*	*	*	*	*	*	*	*ij	*ij	*	*ij	*ij
0C#X	6	Pat-	Cae-	0A	lin-	pan-	1e	Nec	quae	1a	Nec	quae
.	.	.	.	.	.	.	1.e	Pat-	Cae-	1.a	Pat-	Cae-
!LO:TX:t=P:problem:kreska pseudotaktowa	!	!	!	!LO:TX:t=P:problem:kreska pseudotaktowa	!	!	!	!	!	!	!	!
1C#	.	-ris	-li	1A	-quens	-dis	.	.	.	.	.	.
!	!	!	!	!	!	!	!LO:TX:t=P:problem:kreska pseudotaktowa	!	!	!	!	!
.	.	.	.	.	.	.	2e\	-ris	-li	2gny/	-ris	-li
=7-	=7-	=7-	=7-	=7-	=7-	=7-	=7-	=7-	=7-	=7-	=7-	=7-
*	*	*	*	*	*	*ij	*	*	*	*	*	*
1D	.	lin-	pan-	1A	nec	quae	0d	lin-	pan-	0f#X	lin-	pan-
1.D	.	-quens	-dis	1A	Pat-	Cae-	.	.	.	.	.	.
!	!	!	!	!LO:TX:t=P:problem:kreska pseudotaktowa	!	!	!LO:TX:t=P:problem:kreska pseudotaktowa	!	!	!LO:TX:t=P:problem:kreska pseudotaktowa	!	!
.	.	.	.	1A	-ris	-li	1d	-quenſ	-dis	1f#	-quens	-dis
!LO:TX:t=P:problem:kreska pseudotaktowa	!	!	!	!	!	!	!	!	!	!	!	!
2Cny/	.	nec	quae	.	.	.	.	.	.	.	.	.
=8-	=8-	=8-	=8-	=8-	=8-	=8-	=8-	=8-	=8-	=8-	=8-	=8-
*	*	*	*	*	*ij	*	*	*	*	*	*	*
2BB/	.	Pat-	cae-	1d	nec	pan-	1g	Nec	quae	1b	Nec	quae
2BB/	.	-ris	-li	.	.	.	.	.	.	.	.	.
*	*	*	*Xij	*	*	*	*	*	*	*	*	*
(1.C	.	lin-	pan-	1.c	Pat-	-dis	1.g	Pat-	Cae-	1.e	Pat-	Cae-
*	*	*	*	*	*	*Xij	*	*	*	*	*	*
!LO:TX:t=P:problem:kreska pseudotaktowa	!	!	!	!LO:TX:t=P:problem:kreska pseudotaktowa	!	!	!LO:TX:b:t=P:problem:# below	!	!	!	!	!
!	!	!	!	!	!	!	!LO:TX:t=P:problem:kreska pseudotaktowa	!	!	!LO:TX:t=P:problem:kreska pseudotaktowa	!	!
2BB/)	.	.	.	2d\	-ris	cae-	2g#X\	-ris	-li	2e/	-ris	-li
*	*	*	*	*	*Xij	*	*	*	*	*	*	*
=9-	=9-	=9-	=9-	=9-	=9-	=9-	=9-	=9-	=9-	=9-	=9-	=9-
0AA	.	-quens	-diſ	1e	lin-	-li	1a	lin-	pan-	0a	lin-	pan-
*	*	*Xij	*	*	*	*	*	*	*	*	*	*
!	!	!	!	!LO:TX:t=P:problem:kreska pseudotaktowa	!	!	!LO:TX:t=P:problem:kreska pseudotaktowa	!	!	!	!	!
.	.	.	.	0c	-quens	pan-	0e	-quenſ	-dis	.	.	.
!LO:TX:t=P:problem:kreska pseudotaktowa	!	!	!	!	!	!	!	!	!	!LO:TX:t=P:problem:kreska pseudotaktowa	!	!
1C	.	dex-	o-	.	.	.	.	.	.	1g	-quens	-dis
*	*	*	*	*	*	*	*	*Xij	*Xij	*	*Xij	*Xij
=10-	=10-	=10-	=10-	=10-	=10-	=10-	=10-	=10-	=10-	=10-	=10-	=10-
1AA	.	.	.	1c	dex-	-dis	0e	dex-	o-	1g	dex-	O-
1.BB	.	.	.	1.B	.	o-	.	.	.	1.f#X	.	.
!	!	!	!	!	!	!	!LO:TX:a:t=P:problem:# above	!	!	!	!	!
!	!	!	!	!	!	!	!LO:TX:t=P:problem:kreska pseudotaktowa	!	!	!	!	!
.	.	.	.	.	.	.	1d#X	-te-	-ſti-	.	.	.
!	!	!	!	!LO:TX:t=P:problem:kreska pseudotaktowa	!	!	!	!	!	!LO:TX:t=P:problem:kreska pseudotaktowa	!	!
2BB/	.	-te-	-ſti-	2B\	-te-	-sti-	.	.	.	2f#/	-te-	-ſti-
=11-	=11-	=11-	=11-	=11-	=11-	=11-	=11-	=11-	=11-	=11-	=11-	=11-
!LO:TX:t=P:problem:kreska pseudotaktowa	!	!	!	!LO:TX:t=P:problem:kreska pseudotaktowa	!	!	!LO:TX:t=P:problem:kreska pseudotaktowa	!	!	!LO:TX:t=P:problem:kreska pseudotaktowa	!	!
0.E	#	-ra(m)	-um	0.B	-ra(m)	-u(m)	0.e	-ra(m)	-u(m)	0.e	-ra(m)	-um
=12-	=12-	=12-	=12-	=12-	=12-	=12-	=12-	=12-	=12-	=12-	=12-	=12-
!	!	!	!	!	!	!	!	!	!	!LO:N:acc=-	!	!
1E	.	ad	bel-	1B	ad	bel-	1e	ad	bel-	1gn	ad	bel-
1D	.	o-	-la	1d	o-	-la	1fny	o-	-la	1a	o-	-la
!LO:TX:t=P:problem:kreska pseudotaktowa	!	!	!	!LO:TX:t=P:problem:kreska pseudotaktowa	!	!	!LO:TX:t=P:problem:kreska pseudotaktowa	!	!	!LO:TX:t=P:problem:kreska pseudotaktowa	!	!
1BB	.	-p(us)	pre-	1d	-p(us)	pre-	1g#X	-p(us)	pre-	1b	-p(us)	pre-
=13-	=13-	=13-	=13-	=13-	=13-	=13-	=13-	=13-	=13-	=13-	=13-	=13-
0AA	.	Su-	-munt	0e	Su-	-munt	0a	Su-	-munt	0cc	Su-	-munt
!LO:TX:t=P:problem:kreska pseudotaktowa	!	!	!	!LO:TX:t=P:problem:kreska pseudotaktowa	!	!	!LO:TX:t=P:problem:kreska pseudotaktowa	!	!	!LO:TX:t=P:problem:kreska pseudotaktowa	!	!
1BB	.	-u(m)	ho-	1d	-u(m)	ho-	1gny	-u(m)	ho-	1b	-u(m)	ho-
=14-	=14-	=14-	=14-	=14-	=14-	=14-	=14-	=14-	=14-	=14-	=14-	=14-
(<1C	.	e-	-Sti-	(1e	e-	-sti-	0g	e-	-ſti-	1b	e-	-ſti-
1.D)	.	.	.	1.d)	.	.	.	.	.	1.a	.	.
!	!	!	!	!	!	!	!LO:TX:a:t=P:problem:# above	!	!	!	!	!
!	!	!	!	!	!	!	!LO:TX:t=P:problem:kreska pseudotaktowa	!	!	!	!	!
.	.	.	.	.	.	.	1f#X	-xi-	-li-	.	.	.
!LO:TX:t=P:problem:kreska pseudotaktowa	!	!	!	!LO:TX:t=P:problem:kreska pseudotaktowa	!	!	!	!	!	!LO:TX:t=P:problem:kreska pseudotaktowa	!	!
2D/	.	-xi-	-li-	2d\	-xi-	-li-	.	.	.	2a\	-xi-	-li-
=15-	=15-	=15-	=15-	=15-	=15-	=15-	=15-	=15-	=15-	=15-	=15-	=15-
0GG	.	-ens	-a	0d	-ens	-a	0g	-ens	-a	0g	-ens	-a
!LO:TX:t=P:problem:kreska pseudotaktowa	!	!	!	!LO:TX:t=P:problem:kreska pseudotaktowa	!	!	!LO:TX:t=P:problem:kreska pseudotaktowa	!	!	!LO:TX:t=P:problem:kreska pseudotaktowa	!	!
1GG	.	Ve-	da	1d	Ve-	da	1g	Ve-	da	1b	Ve-	da
=16-	=16-	=16-	=16-	=16-	=16-	=16-	=16-	=16-	=16-	=16-	=16-	=16-
!	!	!	!	!	!	!	!LO:TX:a:t=P:problem:# above	!	!	!	!	!
1.D	.	-nit	ro-	1.d	-nit	ro-	1.f#X	-nit	ro-	1.a	-nit	ro-
2D/	.	ad	-bur	2d\	ad	-bur	2f#\	ad	-bur	2a\	ad	-bur
!LO:SIC:v:custos:e	!	!	!	!LO:SIC:v:custos:e	!	!	!	!	!	!	!	!
!LO:TX:t=P:problem:kreska pseudotaktowa	!	!	!	!LO:TX:t=P:problem:kreska pseudotaktowa	!	!	!LO:TX:t=P:problem:kreska pseudotaktowa	!	!	!LO:TX:t=P:problem:kreska pseudotaktowa	!	!
1AA	.	Vi-	da	1e	Vi-	da	1a	Vi-	da	1cc	Vi-	da
=17-	=17-	=17-	=17-	=17-	=17-	=17-	=17-	=17-	=17-	=17-	=17-	=17-
!LO:LB:g=original	!	!	!	!LO:LB:g=original	!	!	!	!	!	!LO:LB:g=original	!	!
1E	.	-tae	ro-	0e	-tae	ro-	0g	-tae	ro-	1b	-tae	ro-
1E	.	Ve-	-bur	.	.	.	.	.	.	1b	Ve-	-bur
*	*	*	*	*	*ij	*	*	*	*	*	*	*
!LO:TX:t=P:problem:kreska pseudotaktowa	!	!	!	!LO:TX:t=P:problem:kreska pseudotaktowa	!	!	!LO:SIC:v:custos:f	!	!	!	!	!
!	!	!	!	!	!	!	!LO:TX:t=P:problem:kreska pseudotaktowa	!	!	!LO:TX:t=P:problem:kreska pseudotaktowa	!	!
1C	.	-nit	da	1e	Ve-	-bur	1g	Ve-	-bur	1cc	-nit	da
=18-	=18-	=18-	=18-	=18-	=18-	=18-	=18-	=18-	=18-	=18-	=18-	=18-
!	!	!	!	!	!	!	!LO:LB:g=original	!	!	!	!	!
!	!	!	!	!	!	!	!LO:N:acc=-	!	!	!	!	!
(1.F	.	ad	ro-	1c	-nit	ro-	1.fn	-nit	ro-	1.a	ad	ro-
.	.	.	.	1A	ad	-bur	.	.	.	.	.	.
2E\)	.	.	bur	.	.	.	2f\	ad	-bur	2g/	.	-bur
!LO:TX:t=P:problem:kreska pseudotaktowa	!	!	!	!LO:TX:t=P:problem:kreska pseudotaktowa	!	!	!LO:TX:t=P:problem:kreska pseudotaktowa	!	!	!LO:TX:t=P:problem:kreska pseudotaktowa	!	!
1D	.	Vi-	fer	1B	Vi-	fer	1f	Vi-	fer	1fny	Vi-	fer
=19-	=19-	=19-	=19-	=19-	=19-	=19-	=19-	=19-	=19-	=19-	=19-	=19-
1C	.	-tae	au-	1c	-tae	au-	1g	-tae	au-	1e	-tae	au-
*	*	*	*	*	*Xij	*	*	*	*	*	*	*
1.G	.	Veſ-	-xi-	1.c	veſ-	-xi-	1.g	Veſ-	-xi-	1.d	Veſ-	-xi-
!LO:TX:t=P:problem:kreska pseudotaktowa	!	!	!	!LO:TX:t=P:problem:kreska pseudotaktowa	!	!	!LO:TX:t=P:problem:kreska pseudotaktowa	!	!	!LO:TX:t=P:problem:kreska pseudotaktowa	!	!
2G\	.	-pe-	-li-	2B\	-pe-	-li-	2g\	-pe-	-li-	2d/	-pe-	-li-
=20-	=20-	=20-	=20-	=20-	=20-	=20-	=20-	=20-	=20-	=20-	=20-	=20-
0C	.	-ra(m)	-u(m)	0c	-ra(m)	-u(m)	0g	-ra(m)	-u(m)	0c	-ra(m)	-u(m)
!LO:TX:t=P:problem:kreska pseudotaktowa	!	!	!	!LO:TX:t=P:problem:kreska pseudotaktowa	!	!	!LO:TX:t=P:problem:kreska pseudotaktowa	!	!	!LO:TX:t=P:problem:kreska pseudotaktowa	!	!
1GG	.	Ve-	da	1d	Ve-	da	1g	Ve-	da	1b	Ve-	da
=21-	=21-	=21-	=21-	=21-	=21-	=21-	=21-	=21-	=21-	=21-	=21-	=21-
1.D	.	-nit	ro-	1.d	-nit	ro-	1.f#X	-nit	ro-	1.a	-nit	ro-
2D/	.	ad	-bur	2d\	ad	-bur	2f#\	ad	-bur	2a\	ad	-bur
*	*	*	*ij	*	*	*	*	*	*	*	*	*ij
!LO:TX:t=P:problem:kreska pseudotaktowa	!	!	!	!LO:TX:t=P:problem:kreska pseudotaktowa	!	!	!LO:TX:t=P:problem:kreska pseudotaktowa	!	!	!LO:TX:t=P:problem:kreska pseudotaktowa	!	!
1AA	.	Vi-	da	1e	Vi-	da	1a	Vi-	da	1cc	Vi-	da
=22-	=22-	=22-	=22-	=22-	=22-	=22-	=22-	=22-	=22-	=22-	=22-	=22-
1E	.	-tae	ro-	0e	-tae	da	0g	-tae	da	1b	-tae	ro-
*	*	*ij	*	*	*	*	*	*ij	*	*	*ij	*
1E	.	Ve-	-bur	.	.	.	.	.	.	1b	Ve-	-bur
*	*	*	*	*	*ij	*	*	*	*	*	*	*
!LO:SIC:v:s=1BB	!	!	!	!	!	!	!	!	!	!	!	!
!LO:TX:t=P:problem:kreska pseudotaktowa	!	!	!	!LO:TX:t=P:problem:kreska pseudotaktowa	!	!	!LO:TX:t=P:problem:kreska pseudotaktowa	!	!	!LO:TX:t=P:problem:kreska pseudotaktowa	!	!
1AA	.	-nit	da	1d	Ve-	.	1f#X	Ve-	.	1dd	-nit	da
=23-	=23-	=23-	=23-	=23-	=23-	=23-	=23-	=23-	=23-	=23-	=23-	=23-
1.E	.	ad	ro-	1.B	-nit	ro-	1.g#X	-nit	ro-	1.dd	ad	ro-
2E\	.	Vi-	-bur	2B\	ad	-bur	2g#\	ad	-bur	2cc\	Vi-	-bur
*	*	*	*Xij	*	*	*	*	*	*	*	*	*Xij
!	!	!	!	!LO:TX:t=P:problem:kreska pseudotaktowa	!	!	!LO:TX:t=P:problem:kreska pseudotaktowa	!	!	!LO:TX:t=P:problem:kreska pseudotaktowa	!	!
1A	.	-tae	fer	1A	Vi-	fer	1a	Vi-	fer	1cc	-tae	fer
*	*	*Xij	*	*	*	*	*	*	*	*	*Xij	*
=24-	=24-	=24-	=24-	=24-	=24-	=24-	=24-	=24-	=24-	=24-	=24-	=24-
1D	.	Veſ-	au-	1A	-tae	au-	1fny	-tae	au-	1cc	Veſ-	au-
*	*	*	*	*	*Xij	*	*	*Xij	*	*	*	*
1.E	.	.	-xi-	1.A	veſ-	-xi-	1.e	veſ-	-xi-	1.b	.	-xi-
2E\	.	-pe-	-li-	2G#X/	-pe-	-li-	2e\	-pe-	-li-	2b\	-pe-	-li-
=25-	=25-	=25-	=25-	=25-	=25-	=25-	=25-	=25-	=25-	=25-	=25-	=25-
!LO:TX:t=P:problem:kreska pseudotaktowa	!	!	!	!LO:TX:t=P:problem:kreska pseudotaktowa	!	!	!LO:TX:t=P:problem:kreska pseudotaktowa	!	!	!LO:TX:t=P:problem:kreska pseudotaktowa	!	!
0.AA;;	.	-ra(m)	-u(m).	0.A;;	-ra(m)	-u(m).	0.e;;	-ra(m)	-u(m)	0.a;;	-ra(m)	-u(m)
=26||	=26||	=26||	=26||	=26||	=26||	=26||	=26||	=26||	=26||	=26||	=26||	=26||
*M3/1	*	*	*	*M3/1	*	*	*M3/1	*	*	*M3/1	*	*
1AA	.	2 In	3 Qui-	1A	2 In	3 Qui-	1e	2 In	3 Qui-	1cc	2 In	3 Qui-
1AA	.	Mor-	-b(us)	1A	Mor-	-b(us)	1f	Mor-	-b(us)	1dd	Mor-	-b(us)
!LO:TX:t=P:problem:kreska pseudotaktowa	!	!	!	!LO:TX:t=P:problem:kreska pseudotaktowa	!	!	!LO:TX:t=P:problem:kreska pseudotaktowa	!	!	!LO:TX:t=P:problem:kreska pseudotaktowa	!	!
1AA	.	-te(m)	Sub	1A	-te(m)	Sub	1e	-te(m)	Sub	1cc	-te(m)	Sub
=27-	=27-	=27-	=27-	=27-	=27-	=27-	=27-	=27-	=27-	=27-	=27-	=27-
0E	.	a	bi-	0G	a	bi-	0g	a	bi-	1b	a	bi-
!	!	!	!	!	!	!	!	!	!	!LO:TX:a:t=P:problem:# aboves	!	!
.	.	.	.	.	.	.	.	.	.	1cc#X	.	.
!	!	!	!	!LO:TX:t=P:problem:kreska pseudotaktowa	!	!	!LO:TX:t=P:problem:kreska pseudotaktowa	!	!	!LO:TX:t=P:problem:kreska pseudotaktowa	!	!
2F\	.	diſ-	-na	1A	diſ-	-na	1f	diſ-	-na	1dd	diſ-	-na
!LO:TX:t=P:problem:kreska pseudotaktowa	!	!	!	!	!	!	!	!	!	!	!	!
2G\	.	.	.	.	.	.	.	.	.	.	.	.
=28-	=28-	=28-	=28-	=28-	=28-	=28-	=28-	=28-	=28-	=28-	=28-	=28-
!	!	!	!	!	!	!	!	!	!	!LO:TX:a:t=P:problem:# above	!	!
1.A	.	-ci-	Spe-	1.A	-ci-	Spe-	1.e	-ci-	ſpe-	1.cc#X	-ci-	ſpe-
2A\	.	-pu-	-ci-	2A/	-pu-	-ci-	2e\	-pu-	-ci-	2cc#\	-pu-	-ci-
!LO:TX:t=P:problem:kreska pseudotaktowa	!	!	!	!LO:TX:t=P:problem:kreska pseudotaktowa	!	!	!LO:TX:t=P:problem:kreska pseudotaktowa	!	!	!LO:TX:t=P:problem:kreska pseudotaktowa	!	!
1A	.	-lo	-e	1A	-lo	-e	1e	-lo	-e	1cc#	-lo	-e
=29-	=29-	=29-	=29-	=29-	=29-	=29-	=29-	=29-	=29-	=29-	=29-	=29-
1F	.	Su-	Car-	1A	Su-	car-	1a	Su-	car-	1ff	Su-	Car-
1.G	.	-is	-ne(m)	1.B	-is	-ne(m)	1g	-is	-ne(m)	1ff	-is	-ne(m)
!	!	!	!	!	!	!	!LO:TX:t=P:problem:kreska pseudotaktowa	!	!	!LO:TX:t=P:problem:kreska pseudotaktowa	!	!
.	.	.	.	.	.	.	1f	tra-	de-	1dd	tra-	de-
!LO:TX:t=P:problem:kreska pseudotaktowa	!	!	!	!LO:TX:t=P:problem:kreska pseudotaktowa	!	!	!	!	!	!	!	!
2G\	.	tra-	de-	2B\	tra-	de-	.	.	.	.	.	.
=30-	=30-	=30-	=30-	=30-	=30-	=30-	=30-	=30-	=30-	=30-	=30-	=30-
1A	.	-den-	-dit	1A	-den-	-dit	1e	-den-	-dit	1cc#X	-den-	-dit
2A\	.	-d(us)	de-	2A/	-d(us)	de-	2e\	-d(us)	de-	2cc#\	-d(us)	de-
2A\	.	tra-	-dit	2A/	tra-	-dit	2e\	tra-	-dit	2cc#\	tra-	-dit
!LO:TX:t=P:problem:kreska pseudotaktowa	!	!	!	!LO:TX:t=P:problem:kreska pseudotaktowa	!	!	!LO:TX:t=P:problem:kreska pseudotaktowa	!	!	!LO:TX:t=P:problem:kreska pseudotaktowa	!	!
1E	.	-den-	et	1G	-den-	et	1g	-den-	et	1ee	-den-	et
=31-	=31-	=31-	=31-	=31-	=31-	=31-	=31-	=31-	=31-	=31-	=31-	=31-
1F	.	-d(us)	San-	1A	-d(us)	San-	1f	-d(us)	ſan-	1dd	-d(us)	ſan-
1.A	.	ae-	.	1.A	ae-	.	1.e	ae-	.	1.dd	ae-	.
!LO:TX:t=P:problem:kreska pseudotaktowa	!	!	!	!LO:TX:t=P:problem:kreska pseudotaktowa	!	!	!LO:TX:t=P:problem:kreska pseudotaktowa	!	!	!LO:TX:t=P:problem:kreska pseudotaktowa	!	!
!	!	!	!	!	!	!	!	!	!	!LO:SIC:v:s=2cc#	!	!
2A\	.	-mu-	-gui-	2A/	-mu-	-gui-	2d\	-mu-	-gui-	2ccny\	-mu-	-gui-
=32-	=32-	=32-	=32-	=32-	=32-	=32-	=32-	=32-	=32-	=32-	=32-	=32-
0D	.	-lis	-ne(m)	0A	-lis	-ne(m)	0d	-lis	-ne(m)	0dd	-lis	-ne(m)
!	!	!	!	!LO:TX:t=P:problem:kreska pseudotaktowa	!	!	!LO:TX:t=P:problem:kreska pseudotaktowa	!	!	!LO:SIC:v:custos:cc	!	!
!	!	!	!	!	!	!	!	!	!	!LO:TX:t=P:problem:kreska pseudotaktowa	!	!
1D	.	pri-	Vt	1A	pri-	ut	1f	pri-	ut	1dd	pri-	ut
=33-	=33-	=33-	=33-	=33-	=33-	=33-	=33-	=33-	=33-	=33-	=33-	=33-
!LO:LB:g=original	!	!	!	!	!	!	!	!	!	!LO:LB:g=original	!	!
1.E	.	-(us)	du-	1.G	-(us)	du-	1.e	-(us)	du-	0cc	-us	du-
2F\	.	in	-pli-	2A/	in	-pli-	2e\	in	-pli-	.	.	.
!LO:TX:t=P:problem:kreska pseudotaktowa	!	!	!	!LO:TX:t=P:problem:kreska pseudotaktowa	!	!	!LO:SIC:v:custos:e	!	!	!	!	!
!	!	!	!	!	!	!	!	!	!	!LO:TX:t=P:problem:kreska pseudotaktowa	!	!
1G	.	Vi-	-cis	1B	Vi-	-cis	1d	Vi-	-ciſ	1b	in	-pli-
=34-	=34-	=34-	=34-	=34-	=34-	=34-	=34-	=34-	=34-	=34-	=34-	=34-
!	!	!	!	!	!	!	!LO:LB:g=original	!	!	!	!	!
!	!	!	!	!LO:LB:g=original	!	!	!	!	!	!	!	!
1.C	.	-tae	du-	1.G	-tae	du-	1.e	-tae	du-	0cc	Vi-	-cis
2D/	.	in	-pli-	2G/	in	-pli-	2f\	in	-pli-	.	.	.
!LO:TX:t=P:problem:kreska pseudotaktowa	!	!	!	!LO:TX:t=P:problem:kreska pseudotaktowa	!	!	!LO:TX:t=P:problem:kreska pseudotaktowa	!	!	!LO:TX:t=P:problem:kreska pseudotaktowa	!	!
1E	.	Vi-	-cis	1G	Vi-	-cis	1g	Vi-	-ciſ	1g	-tae	Sub-
=35-	=35-	=35-	=35-	=35-	=35-	=35-	=35-	=35-	=35-	=35-	=35-	=35-
1F	.	-tae	Sub-	1A	-tae	Sub-	1a	-tae	Sub-	0cc	fer-	-ſtan-
1.G	.	fer-	-ſtan-	1.G	fer-	-ſtan-	1.d	fer-	-ſtan-	.	.	.
!	!	!	!	!	!	!	!	!	!	!LO:TX:t=P:problem:kreska pseudotaktowa	!	!
.	.	.	.	.	.	.	.	.	.	1b	-cu-	-ti-
!LO:TX:t=P:problem:kreska pseudotaktowa	!	!	!	!LO:TX:t=P:problem:kreska pseudotaktowa	!	!	!LO:TX:t=P:problem:kreska pseudotaktowa	!	!	!	!	!
2G\	.	-cu-	-ti-	2G/	-cu-	-ti-	2d\	-cu-	-ti-	.	.	.
=36-	=36-	=36-	=36-	=36-	=36-	=36-	=36-	=36-	=36-	=36-	=36-	=36-
0C,<	.	-lo	-ae	0G	-lo	-ae	0c	-lo	-ae	0cc	-lo	-ae
!LO:TX:t=P:problem:kreska pseudotaktowa	!	!	!	!LO:TX:t=P:problem:kreska pseudotaktowa	!	!	!LO:TX:t=P:problem:kreska pseudotaktowa	!	!	!LO:TX:t=P:problem:kreska pseudotaktowa	!	!
1C	.	Se	to-	1G	Se	to-	1e	Se	to-	1cc	Se	to-
=37-	=37-	=37-	=37-	=37-	=37-	=37-	=37-	=37-	=37-	=37-	=37-	=37-
1.G	.	tra-	-tu(m)	1.B	tra-	-tum	1.d	tra-	-tu(m)	1.b	tra-	-tu(m)
2G\	.	-di-	Ci-	2B\	-di-	ci-	2c/	-di-	ci-	2a\	-di-	ci-
!LO:TX:t=P:problem:kreska pseudotaktowa	!	!	!	!LO:TX:t=P:problem:kreska pseudotaktowa	!	!	!LO:TX:t=P:problem:kreska pseudotaktowa	!	!	!LO:TX:t=P:problem:kreska pseudotaktowa	!	!
1G	.	-dit	-ba-	1B	-dit	-ba-	1d	-dit	-ba-	1b	-dit	-ba-
=38-	=38-	=38-	=38-	=38-	=38-	=38-	=38-	=38-	=38-	=38-	=38-	=38-
1D	.	diſ-	-ret	1A	diſ-	-ret	1f	diſ-	-ret	1a	diſ-	-ret
1.C	.	-ci-	ho-	1.A	-ci-	ho-	1.e	-ci-	ci-	1.a	-ci-	ci-
!LO:TX:t=P:problem:kreska pseudotaktowa	!	!	!	!LO:TX:a:t=P:problem:# above	!	!	!	!	!	!	!	!
!	!	!	!	!LO:TX:t=P:problem:kreska pseudotaktowa	!	!	!LO:TX:t=P:problem:kreska pseudotaktowa	!	!	!LO:TX:t=P:problem:kreska pseudotaktowa	!	!
2BB/	.	-pu-	-mi-	2G#X/	-pu-	-mi-	2d\	-pu-	-ba-	2b\	-pu-	-ba-
=39-	=39-	=39-	=39-	=39-	=39-	=39-	=39-	=39-	=39-	=39-	=39-	=39-
1AA	.	-lis	-ne(m)	1E	-lis	-ne(m)	0e	-lis	-ret	0cc	-lis	-ret
(<1A	.	di-	Ci-	1A	di-	ci-	.	.	.	.	.	.
!LO:TX:t=P:problem:kreska pseudotaktowa	!	!	!	!LO:TX:t=P:problem:kreska pseudotaktowa	!	!	!LO:TX:t=P:problem:kreska pseudotaktowa	!	!	!	!	!
1E)	.	.	-ba-	1B	.	-ba-	1g	diſ-	ho-	2b\	diſ-	ho-
!	!	!	!	!	!	!	!	!	!	!LO:TX:t=P:problem:kreska pseudotaktowa	!	!
.	.	.	.	.	.	.	.	.	.	2ee\	.	.
=40-	=40-	=40-	=40-	=40-	=40-	=40-	=40-	=40-	=40-	=40-	=40-	=40-
1AA	.	.	-ret	1c	-Sci-	-ret	1g	-ci-	.	0ee	-ci-	.
*	*	*	*	*lig	*	*	*	*	*	*	*	*
!	!	!	!	!LO:TX:a:t=P:problem:# above	!	!	!LO:TX:a:t=P:problem:# above	!	!	!	!	!
1.BB	.	-Sci-	ho-	1F#X	-pu-	ho-	1.f#X	.	.	.	.	.
!	!	!	!	!LO:TX:t=P:problem:kreska pseudotaktowa	!	!	!	!	!	!LO:TX:a:t=P:problem:# above	!	!
!	!	!	!	!	!	!	!	!	!	!LO:TX:t=P:problem:kreska pseudotaktowa	!	!
.	.	.	.	1B	.	-mi-	.	.	.	1dd#X	-pu-	-mi-
!LO:TX:t=P:problem:kreska pseudotaktowa	!	!	!	!	!	!	!LO:TX:t=P:problem:kreska pseudotaktowa	!	!	!	!	!
2BB/	.	-pu-	-mi-	.	.	.	2f#\	-pu-	-mi-	.	.	.
*	*	*	*	*Xlig	*	*	*	*	*	*	*	*
=41-	=41-	=41-	=41-	=41-	=41-	=41-	=41-	=41-	=41-	=41-	=41-	=41-
0E	.	-lis	-ne(m)	0B	-lis	-ne(m)	0e	-lis	-ne(m)	0ee	-lis	-ne(m)
!LO:TX:t=P:problem:kreska pseudotaktowa	!	!	!	!LO:TX:t=P:problem:kreska pseudotaktowa	!	!	!LO:TX:t=P:problem:kreska pseudotaktowa	!	!	!	!	!
1C	.	Se	to-	1c	Se	to-	1e	Se	to-	(2g/	Se	to-
!	!	!	!	!	!	!	!	!	!	!LO:TX:t=P:problem:kreska pseudotaktowa	!	!
.	.	.	.	.	.	.	.	.	.	2a/)	.	.
=42-	=42-	=42-	=42-	=42-	=42-	=42-	=42-	=42-	=42-	=42-	=42-	=42-
1.G	.	tra-	-tu(m)	1.B	tra-	-tu(m)	1.d	tra-	-tu(m)	1.b	tra-	-tu(m)
2G\	.	-di-	Ci-	2B\	-di-	Ci-	2d\	-di-	Ci-	2b\	-di-	ci-
!LO:TX:t=P:problem:kreska pseudotaktowa	!	!	!	!LO:TX:t=P:problem:kreska pseudotaktowa	!	!	!LO:TX:t=P:problem:kreska pseudotaktowa	!	!	!LO:TX:t=P:problem:kreska pseudotaktowa	!	!
1E	.	-dit	-ba-	1Gny	-dit	-ba-	1e	-dit	-ba-	1cc	-dit	-ba-
=43-	=43-	=43-	=43-	=43-	=43-	=43-	=43-	=43-	=43-	=43-	=43-	=43-
1.F	.	tra-	-ret	1.A	tra-	-ret	1.c	tra-	-ret	1.a	tra-	-ret
2F\	.	-di-	Ci-	2A/	-di-	ci-	2B/	-di-	Ci-	2a\	-di-	Ci-
!LO:TX:t=P:problem:kreska pseudotaktowa	!	!	!	!LO:TX:t=P:problem:kreska pseudotaktowa	!	!	!LO:TX:t=P:problem:kreska pseudotaktowa	!	!	!LO:TX:t=P:problem:kreska pseudotaktowa	!	!
1D	.	-dit	-ba-	1B	-dit	-ba-	1d	-dit	-ba-	1b	-dit	-ba-
=44-	=44-	=44-	=44-	=44-	=44-	=44-	=44-	=44-	=44-	=44-	=44-	=44-
1AA	.	di-	-ret	1E	di-	-ret	1c	di-	-ret	1a	di-	-ret
1.E	.	-ſci-	ho-	1.E	-ſci-	ho-	1.B	-ſci-	ho-	1.a	-ſci-	ho-
!	!	!	!	!	!	!	!	!	!	!LO:TX:a:t=P:problem:# above	!	!
2E\	.	-pu-	-mi-	2E/	-pu-	-mi-	2B/	-pu-	-mi-	2g#X/	-pu-	-mi-
=45-	=45-	=45-	=45-	=45-	=45-	=45-	=45-	=45-	=45-	=45-	=45-	=45-
!LO:TX:t=P:problem:kreska pseudotaktowa	!	!	!	!LO:TX:t=P:problem:kreska pseudotaktowa	!	!	!LO:TX:t=P:problem:kreska pseudotaktowa	!	!	!LO:TX:t=P:problem:kreska pseudotaktowa	!	!
0.AA;;	.	-lis	-ne(m).	0.A;;	-lis	-ne(m)	0.A;;	-lis	-ne(m)	0.a;;	-lis	-ne(m)
=46||	=46||	=46||	=46||	=46||	=46||	=46||	=46||	=46||	=46||	=46||	=46||	=46||
*M3/1	*	*	*	*M3/1	*	*	*M3/1	*	*	*M3/1	*	*
!LO:TX:t=P:problem:przed kluczem inicjał S	!	!	!	!LO:TX:t=P:problem:przed kluczem inicjał S	!	!	!LO:TX:t=P:problem:przed kluczem inicjał S	!	!	!LO:TX:t=P:problem:przed kluczem inicjał S	!	!
1r	.	.	.	1rA	.	.	1r	.	.	1rg	.	.
1r	.	.	.	1rA	.	.	1r	.	.	1rg	.	.
!LO:TX:t=P:problem:kreska pseudotaktowa	!	!	!	!LO:TX:t=P:problem:kreska pseudotaktowa	!	!	!LO:TX:t=P:problem:kreska pseudotaktowa	!	!	!LO:TX:t=P:problem:kreska pseudotaktowa	!	!
1A	.	.	4 Se	1c	.	4 Se	1e	.	4 Se	1a	.	4 Se
=47-	=47-	=47-	=47-	=47-	=47-	=47-	=47-	=47-	=47-	=47-	=47-	=47-
1.F	.	.	naſ-	1.c	.	Naſ-	1.fny	.	naſ-	1.a	.	naſ-
2E\	.	.	-cenſ	2c\	.	-cenſ	2g\	.	-cens	2cc\	.	-cens
2D\	.	.	de-	2c\	.	de-	2a\	.	de-	2b\	.	de-
!LO:TX:t=P:problem:kreska pseudotaktowa	!	!	!	!LO:TX:t=P:problem:kreska pseudotaktowa	!	!	!LO:TX:t=P:problem:kreska pseudotaktowa	!	!	!LO:TX:t=P:problem:kreska pseudotaktowa	!	!
2F\	.	.	-dit	2d\	.	-dit	2g\	.	-dit	2b\	.	-dit
=48-	=48-	=48-	=48-	=48-	=48-	=48-	=48-	=48-	=48-	=48-	=48-	=48-
1.C	.	.	ſo-	1.e	.	ſo-	1.g	.	ſo-	1.cc	.	ſo-
2C/	.	.	-ci-	2e\	.	-ci-	2g\	.	-ci-	2cc\	.	-ci-
!LO:TX:t=P:problem:kreska pseudotaktowa	!	!	!	!LO:TX:t=P:problem:kreska pseudotaktowa	!	!	!LO:TX:t=P:problem:kreska pseudotaktowa	!	!	!LO:TX:t=P:problem:kreska pseudotaktowa	!	!
1C	.	.	-u(m)	1e	.	-u(m)	1g	.	-u(m)	1cc	.	-u(m)
=49-	=49-	=49-	=49-	=49-	=49-	=49-	=49-	=49-	=49-	=49-	=49-	=49-
!LO:LB:g=original	!	!	!	!	!	!	!	!	!	!	!	!
1r	.	.	.	1re	.	.	1r	.	.	1r	.	.
1r	.	.	.	1re	.	.	1r	.	.	1r	.	.
!	!	!	!	!LO:SIC:v:custos:A	!	!	!	!	!	!	!	!
!LO:TX:t=P:problem:kreska pseudotaktowa	!	!	!	!LO:TX:t=P:problem:kreska pseudotaktowa	!	!	!LO:TX:t=P:problem:kreska pseudotaktowa	!	!	!LO:TX:t=P:problem:kreska pseudotaktowa	!	!
1c	.	.	Se	1e	.	Se	1g	.	Se	1cc	.	Se
=50-	=50-	=50-	=50-	=50-	=50-	=50-	=50-	=50-	=50-	=50-	=50-	=50-
!	!	!	!	!	!	!	!	!	!	!LO:LB:g=original	!	!
!	!	!	!	!LO:LB:g=original	!	!	!LO:LB:g=original	!	!	!	!	!
1.F	.	.	naſ-	1.A	.	naſ-	1.f	.	naſ-	1.cc	.	naſ-
2E\	.	.	-cenſ	2G/	.	-cenſ	2g\	.	-cens	2cc\	.	-cens
!LO:TX:t=P:problem:kreska pseudotaktowa	!	!	!	!	!	!	!LO:TX:t=P:problem:kreska pseudotaktowa	!	!	!LO:TX:t=P:problem:kreska pseudotaktowa	!	!
1D	.	.	de-	2A\	.	de-	1f	.	de-	1ddny	.	de-
!	!	!	!	!LO:TX:t=P:problem:kreska pseudotaktowa	!	!	!	!	!	!	!	!
.	.	.	.	2B\	.	.	.	.	.	.	.	.
=51-	=51-	=51-	=51-	=51-	=51-	=51-	=51-	=51-	=51-	=51-	=51-	=51-
!	!	!	!	!	!	!	!LO:SIC:v:s=1e	!	!	!	!	!
1AA	.	.	-dit	1c	.	-dit	1f	.	-dit	1cc	.	-dit
1.C	.	.	so-	1.c	.	So-	1.f	.	So-	1.gny	.	ſo-
!LO:TX:t=P:problem:kreska pseudotaktowa	!	!	!	!LO:TX:t=P:problem:kreska pseudotaktowa	!	!	!	!	!	!LO:TX:t=P:problem:kreska pseudotaktowa	!	!
2C/	.	.	-ci-	2c\	.	-ci-	2e\	.	-ci-	2g/	.	-ci-
=52-	=52-	=52-	=52-	=52-	=52-	=52-	=52-	=52-	=52-	=52-	=52-	=52-
!	!	!	!	!	!	!	!LO:TX:t=P:problem:kreska pseudotaktowa	!	!	!	!	!
0FF,<	.	.	-u(m)	0c	.	-u(m)	0.f	.	-u(m)	0a	.	-u(m)
!LO:TX:t=P:problem:kreska pseudotaktowa	!	!	!	!LO:TX:t=P:problem:kreska pseudotaktowa	!	!	!	!	!	!LO:TX:t=P:problem:kreska pseudotaktowa	!	!
1F	.	.	con-	1c	.	Con-	.	.	.	1cc	.	Con-
=53-	=53-	=53-	=53-	=53-	=53-	=53-	=53-	=53-	=53-	=53-	=53-	=53-
!	!	!	!	!	!	!	!LO:TX:t=P:problem:kreska pseudotaktowa	!	!	!	!	!
1E	6\	.	-veſ-	1G	.	-veſ-	0.r	.	.	1cc#X	.	-ves-
1E	.	.	-cens	1G	.	-cenſ	.	.	.	1cc#	.	-cens
*	*	*	*ij	*	*	*	*	*	*	*	*	*
!LO:TX:t=P:problem:kreska pseudotaktowa	!	!	!	!LO:TX:t=P:problem:kreska pseudotaktowa	!	!	!	!	!	!LO:TX:t=P:problem:kreska pseudotaktowa	!	!
1E	.	.	con-	1G	.	con-	.	.	.	1cc#	.	con-
=54-	=54-	=54-	=54-	=54-	=54-	=54-	=54-	=54-	=54-	=54-	=54-	=54-
!LO:TX:t=P:problem:kreska pseudotaktowa	!	!	!	!LO:TX:t=P:problem:kreska pseudotaktowa	!	!	!	!	!	!LO:TX:t=P:problem:kreska pseudotaktowa	!	!
0.D	.	.	-veſ-	0.A	.	-veſ-	1r	.	.	0.dd	.	-veſ-
.	.	.	.	.	.	.	1r	.	.	.	.	.
!	!	!	!	!	!	!	!LO:TX:t=P:problem:kreska pseudotaktowa	!	!	!	!	!
.	.	.	.	.	.	.	1f	.	Con-	.	.	.
=55-	=55-	=55-	=55-	=55-	=55-	=55-	=55-	=55-	=55-	=55-	=55-	=55-
!LO:TX:t=P:problem:kreska pseudotaktowa	!	!	!	!	!	!	!	!	!	!LO:TX:t=P:problem:kreska pseudotaktowa	!	!
0.C#X,<	.	.	-cens	0.A	.	cenſ	1e	.	-veſ-	0.ee	.	-cenſ
.	.	.	.	.	.	.	1e	.	-cenſ	.	.	.
*	*	*	*Xij	*	*	*	*	*	*ij	*	*	*
!	!	!	!	!	!	!	!LO:TX:t=P:problem:kreska pseudotaktowa	!	!	!	!	!
.	.	.	.	.	.	.	1e	.	con-	.	.	.
=56-	=56-	=56-	=56-	=56-	=56-	=56-	=56-	=56-	=56-	=56-	=56-	=56-
!	!	!	!	!LO:SIC:v:s=0F#	!	!	!	!	!	!	!	!
0D	.	.	in	0G#X	.	-in	1.d	.	-veſ-	0a	.	in
.	.	.	.	.	.	.	2d\	.	-cenſ	.	.	.
*	*	*	*	*	*	*	*	*	*Xij	*	*	*
!LO:TX:t=P:problem:kreska pseudotaktowa	!	!	!	!LO:TX:t=P:problem:kreska pseudotaktowa	!	!	!	!	!	!	!	!
1F	.	.	e-	1A	.	e-	2c/	.	in	2a\	.	e-
!	!	!	!	!	!	!	!LO:TX:t=P:problem:kreska pseudotaktowa	!	!	!LO:TX:t=P:problem:kreska pseudotaktowa	!	!
.	.	.	.	.	.	.	2d\	.	.	2b\	.	.
=57-	=57-	=57-	=57-	=57-	=57-	=57-	=57-	=57-	=57-	=57-	=57-	=57-
0E	.	.	-du-	0A	.	-du-	1e	.	e-	1ccny	.	.
!	!	!	!	!	!	!	!	!	!	!LO:SIC:v:	!	!
.	.	.	.	.	.	.	1.e	.	-du-	2b#X\	.	.
.	.	.	.	.	.	.	.	.	.	2a\	.	.
!	!	!	!	!LO:TX:a:t=P:problem:# above	!	!	!	!	!	!	!	!
1E	.	.	-li-	1G#X	.	-li-	.	.	.	2.b#\	.	-du-
.	.	.	.	.	.	.	2e\	.	-li-	.	.	.
!	!	!	!	!	!	!	!	!	!	!LO:TX:t=P:problem:kreska pseudotaktowa	!	!
.	.	.	.	.	.	.	.	.	.	4b#\	.	-li-
=58-	=58-	=58-	=58-	=58-	=58-	=58-	=58-	=58-	=58-	=58-	=58-	=58-
*M2/2	*	*	*	*M2/2	*	*	*M2/2	*	*	*M2/2	*	*
*met(C|)	*	*	*	*met(C|)	*	*	*met(C|)	*	*	*met(C|)	*	*
2AA/	.	.	-u(m)	2A/	.	-um	2e\	.	-u(m)	2a\	.	-u(m)
!LO:TX:t=P:problem:kreska pseudotaktowa	!	!	!	!LO:TX:t=P:problem:kreska pseudotaktowa	!	!	!LO:TX:t=P:problem:kreska pseudotaktowa	!	!	!LO:TX:t=P:problem:kreska pseudotaktowa	!	!
2AA/	#	.	Se	2A/	.	Se	2r	.	.	2cc#X\	.	Se
=59-	=59-	=59-	=59-	=59-	=59-	=59-	=59-	=59-	=59-	=59-	=59-	=59-
2.FF#X/	.	.	mo-	2.A/	.	Mo-	1r	.	.	2.dd\	.	mo-
!	!	!	!	!LO:TX:t=P:problem:kreska pseudotaktowa	!	!	!	!	!	!LO:TX:t=P:problem:kreska pseudotaktowa	!	!
4FF#/	.	.	-ri-	4A/	.	-ri-	.	.	.	4dd\	.	-ri-
=60-	=60-	=60-	=60-	=60-	=60-	=60-	=60-	=60-	=60-	=60-	=60-	=60-
!LO:TX:t=P:problem:kreska pseudotaktowa	!	!	!	!	!	!	!	!	!	!	!	!
!	!	!	!	!	!	!	!	!	!	!LO:TX:t=P:problem:kreska pseudotaktowa	!	!
1GG#X	.	.	-ens	1e	.	-ênſ	2r	.	.	1bny	.	-ens
!	!	!	!	!	!	!	!LO:TX:t=P:problem:kreska pseudotaktowa	!	!	!	!	!
.	.	.	.	.	.	.	2e\	.	Se	.	.	.
=61-	=61-	=61-	=61-	=61-	=61-	=61-	=61-	=61-	=61-	=61-	=61-	=61-
!LO:TX:t=P:problem:kreska pseudotaktowa	!	!	!	!LO:TX:t=P:problem:kreska pseudotaktowa	!	!	!	!	!	!	!	!
1AA	.	.	in	1c#X	.	in	2e\	.	mo-	4b\	.	in
.	.	.	.	.	.	.	.	.	.	8a\L	.	.
.	.	.	.	.	.	.	.	.	.	8g\J	.	.
!	!	!	!	!	!	!	!LO:TX:t=P:problem:kreska pseudotaktowa	!	!	!	!	!
.	.	.	.	.	.	.	2f#X\	.	-ri-	1a\	.	.
=62-	=62-	=62-	=62-	=62-	=62-	=62-	=62-	=62-	=62-	=62-	=62-	=62-
!	!	!	!	!	!	!	!LO:SIC:v:s=2f#	!	!	!	!	!
1.BB	.	.	pre-	2d#X\	.	pre-	2fny\	.	-enſ	.	.	.
!	!	!	!	!LO:TX:t=P:problem:kreska pseudotaktowa	!	!	!LO:TX:t=P:problem:kreska pseudotaktowa	!	!	!LO:TX:t=P:problem:kreska pseudotaktowa	!	!
.	.	.	.	[2B\	.	.	2e\	.	in	2g/	.	.
=63-	=63-	=63-	=63-	=63-	=63-	=63-	=63-	=63-	=63-	=63-	=63-	=63-
.	.	.	.	2.B\]	.	.	2.e\	.	pre-	2.f#X/	.	pre-
!LO:TX:t=P:problem:kreska pseudotaktowa	!	!	!	!	!	!	!	!	!	!	!	!
2BB/	.	.	-ti-	.	.	.	.	.	.	.	.	.
!	!	!	!	!	!	!	!	!	!	!LO:TX:t=P:problem:kreska pseudotaktowa	!	!
.	.	.	.	4B\	.	-ti-	4d\	.	-ti-	4f#/	.	-ti-
=64-	=64-	=64-	=64-	=64-	=64-	=64-	=64-	=64-	=64-	=64-	=64-	=64-
*M3/1	*	*	*	*M3/1	*	*	*M3/1	*	*	*M3/1	*	*
!	!	!	!	!	!	!	!	!	!	!LO:TX:b:t=P:problem:# below	!	!
0E,<	.	.	-u(m)	0B	.	-u(m)	0e,<	.	-u(m)	0g#X	.	-u(m)
!LO:TX:t=P:problem:kreska pseudotaktowa	!	!	!	!LO:TX:t=P:problem:kreska pseudotaktowa	!	!	!LO:TX:t=P:problem:kreska pseudotaktowa	!	!	!LO:TX:t=P:problem:kreska pseudotaktowa	!	!
!	!	!	!	!	!	!	!	!	!	!LO:N:acc=-	!	!
1Cny	.	.	Se	1cny	.	Se	1e	.	Se	1gn	.	Se
=65-	=65-	=65-	=65-	=65-	=65-	=65-	=65-	=65-	=65-	=65-	=65-	=65-
1.C	.	.	Re-	1.e	.	Re-	1.g	.	Re-	1ccny	.	Re-
.	.	.	.	.	.	.	.	.	.	2e/	.	.
2D/	.	.	.	2dny\	.	.	2f\	.	.	2fny/	.	.
!	!	!	!	!LO:TX:t=P:problem:kreska pseudotaktowa	!	!	!LO:TX:t=P:problem:kreska pseudotaktowa	!	!	!	!	!
2E\	.	.	.	1c	.	.	1e	.	.	2g/	.	.
!LO:TX:t=P:problem:kreska pseudotaktowa	!	!	!	!	!	!	!	!	!	!LO:TX:t=P:problem:kreska pseudotaktowa	!	!
2F\	.	.	.	.	.	.	.	.	.	2a/	.	.
=66-	=66-	=66-	=66-	=66-	=66-	=66-	=66-	=66-	=66-	=66-	=66-	=66-
!LO:TX:t=P:problem:kreska pseudotaktowa	!	!	!	!	!	!	!	!	!	!LO:TX:t=P:problem:kreska pseudotaktowa	!	!
0.G	.	.	.	1.B	.	.	1.d	.	.	0.b	.	.
.	.	.	.	2A/	.	.	2c/	.	.	.	.	.
.	.	.	.	2B\	.	.	2d\	.	.	.	.	.
!	!	!	!	!LO:TX:t=P:problem:kreska pseudotaktowa	!	!	!LO:TX:t=P:problem:kreska pseudotaktowa	!	!	!	!	!
.	.	.	.	2c\	.	.	2e\	.	.	.	.	.
=67-	=67-	=67-	=67-	=67-	=67-	=67-	=67-	=67-	=67-	=67-	=67-	=67-
0D,<	.	.	-gnanſ	2d\	.	.	2f\	.	.	0a	.	-gnanſ
.	.	.	.	2e\	.	.	2g\	.	.	.	.	.
.	.	.	.	1.f	.	.	1.a	.	.	.	.	.
!LO:TX:t=P:problem:kreska pseudotaktowa	!	!	!	!	!	!	!	!	!	!LO:TX:t=P:problem:kreska pseudotaktowa	!	!
1D	.	.	Se	.	.	.	.	.	.	1a	.	Se
!	!	!	!	!LO:TX:t=P:problem:kreska pseudotaktowa	!	!	!LO:TX:t=P:problem:kreska pseudotaktowa	!	!	!	!	!
.	.	.	.	2e\	.	.	2g\	.	.	.	.	.
=68-	=68-	=68-	=68-	=68-	=68-	=68-	=68-	=68-	=68-	=68-	=68-	=68-
!	!	!	!	!LO:TX:t=P:problem:kreska pseudotaktowa	!	!	!LO:TX:t=P:problem:kreska pseudotaktowa	!	!	!	!	!
1.D	.	.	re-	0.d	.	.	0.f	.	.	2a\	.	Re-
.	.	.	.	.	.	.	.	.	.	2g/	.	.
.	.	.	.	.	.	.	.	.	.	2f/	.	.
2E\	.	.	.	.	.	.	.	.	.	2g/	.	.
2F\	.	.	.	.	.	.	.	.	.	2a\	.	.
!LO:TX:t=P:problem:kreska pseudotaktowa	!	!	!	!	!	!	!	!	!	!LO:TX:t=P:problem:kreska pseudotaktowa	!	!
2G\	.	.	.	.	.	.	.	.	.	2b\	.	.
=69-	=69-	=69-	=69-	=69-	=69-	=69-	=69-	=69-	=69-	=69-	=69-	=69-
!LO:TX:t=P:problem:kreska pseudotaktowa	!	!	!	!	!	!	!	!	!	!LO:TX:t=P:problem:kreska pseudotaktowa	!	!
0.A	.	.	.	1c	.	-gnanſ	1e	.	-gnanſ	0.cc	.	.
.	.	.	.	2c\	.	Se	2e\	.	Se	.	.	.
.	.	.	.	2B\	.	.	2d\	.	.	.	.	.
.	.	.	.	2c\	.	.	2e\	.	.	.	.	.
!	!	!	!	!LO:SIC:v:custos:e	!	!	!LO:SIC:v:custos:g	!	!	!	!	!
!	!	!	!	!LO:TX:t=P:problem:kreska pseudotaktowa	!	!	!LO:TX:t=P:problem:kreska pseudotaktowa	!	!	!	!	!
.	.	.	.	2d\	.	.	2f\	.	.	.	.	.
=70-	=70-	=70-	=70-	=70-	=70-	=70-	=70-	=70-	=70-	=70-	=70-	=70-
!	!	!	!	!LO:LB:g=original	!	!	!LO:LB:g=original	!	!	!	!	!
1E,<	.	.	-gnans	1e	.	Reg-	1g	.	Reg-	1b	.	-gnanſ
1E	.	.	dat	1B	.	-nanſ	1g	.	-nanſ	1b	.	dat
!LO:TX:t=P:problem:kreska pseudotaktowa	!	!	!	!LO:TX:t=P:problem:kreska pseudotaktowa	!	!	!LO:TX:t=P:problem:kreska pseudotaktowa	!	!	!LO:TX:t=P:problem:kreska pseudotaktowa	!	!
1F	.	.	in	1d	.	dat	1f	.	dat	1a	.	in
=71-	=71-	=71-	=71-	=71-	=71-	=71-	=71-	=71-	=71-	=71-	=71-	=71-
!	!	!	!	!	!	!	!	!	!	!LO:LB:g=original	!	!
0A	.	.	prae-	1d	.	in	1e	.	in	0a	.	prae-
.	.	.	.	1.d	.	prae-	1.e	.	prae-	.	.	.
!LO:TX:t=P:problem:kreska pseudotaktowa	!	!	!	!	!	!	!	!	!	!LO:TX:t=P:problem:kreska pseudotaktowa	!	!
1A	.	.	-mi-	.	.	.	.	.	.	1a	.	-mi-
!	!	!	!	!LO:TX:a:t=P:problem:# above	!	!	!	!	!	!	!	!
!	!	!	!	!LO:TX:t=P:problem:kreska pseudotaktowa	!	!	!LO:TX:t=P:problem:kreska pseudotaktowa	!	!	!	!	!
.	.	.	.	2c#\	.	-mi-	2e\	.	-mi-	.	.	.
=72-	=72-	=72-	=72-	=72-	=72-	=72-	=72-	=72-	=72-	=72-	=72-	=72-
0D	.	.	-u(m)	0d	.	-u(m)	1f	.	-u(m)	1a	.	-u(m)
.	.	.	.	.	.	.	2a\	.	.	2f/	.	Se
.	.	.	.	.	.	.	2g\	.	.	2g/	.	.
!LO:TX:t=P:problem:kreska pseudotaktowa	!	!	!	!LO:TX:t=P:problem:kreska pseudotaktowa	!	!	!	!	!	!	!	!
1D	.	.	ſe	1d	.	Se	2f\	.	Se	2a\	.	.
!	!	!	!	!	!	!	!	!	!	!LO:TX:t=P:problem:kreska pseudotaktowa	!	!
.	.	.	.	.	.	.	4g\	.	Reg-	2b\	.	.
!	!	!	!	!	!	!	!LO:TX:t=P:problem:kreska pseudotaktowa	!	!	!	!	!
.	.	.	.	.	.	.	4f\	.	.	.	.	.
=73-	=73-	=73-	=73-	=73-	=73-	=73-	=73-	=73-	=73-	=73-	=73-	=73-
!LO:LB:g=original	!	!	!	!	!	!	!LO:TX:t=P:problem:kreska pseudotaktowa	!	!	!	!	!
1.AA	.	.	re-	1.cny	.	Re-	0.e	.	.	2cc\	.	Re-
.	.	.	.	.	.	.	.	.	.	2a\	.	.
.	.	.	.	.	.	.	.	.	.	2cc\	.	.
2BB/	.	.	.	2d\	.	.	.	.	.	2b\	.	.
!	!	!	!	!	!	!	!	!	!	!LO:TX:t=P:problem:kreska pseudotaktowa	!	!
2C/	.	.	.	2e\	.	.	.	.	.	1a	.	-gnanſ
!LO:TX:t=P:problem:kreska pseudotaktowa	!	!	!	!	!	!	!	!	!	!	!	!
2D/	.	.	.	4d\	.	.	.	.	.	.	.	.
!	!	!	!	!LO:TX:t=P:problem:kreska pseudotaktowa	!	!	!	!	!	!	!	!
.	.	.	.	4c\	.	.	.	.	.	.	.	.
=74-	=74-	=74-	=74-	=74-	=74-	=74-	=74-	=74-	=74-	=74-	=74-	=74-
!LO:TX:t=P:problem:kreska pseudotaktowa	!	!	!	!	!	!	!LO:SIC:v:l:s=nans	!	!	!	!	!
0.E	.	.	.	2B/	.	.	0e	.	-naſ	2g/	.	.
.	.	.	.	2A/	.	.	.	.	.	2f/	.	dat
.	.	.	.	2Gny/	.	.	.	.	.	2e/	.	.
.	.	.	.	2A\	.	.	.	.	.	2f/	.	.
.	.	.	.	2B\	.	.	1e	.	.	2g/	.	.
!	!	!	!	!LO:TX:t=P:problem:kreska pseudotaktowa	!	!	!	!	!	!LO:TX:t=P:problem:kreska pseudotaktowa	!	!
.	.	.	.	2c\	.	.	.	.	.	2a\	.	.
=75-	=75-	=75-	=75-	=75-	=75-	=75-	=75-	=75-	=75-	=75-	=75-	=75-
1BB	.	.	-gnans	2d\	.	.	0g	.	dat	2b\	.	.
.	.	.	.	2c\	.	.	.	.	.	2a\	.	.
1BB	.	.	dat	2B\	.	.	.	.	.	2g\	.	.
.	.	.	.	2c\	.	.	.	.	.	2a\	.	.
!LO:TX:t=P:problem:kreska pseudotaktowa	!	!	!	!LO:TX:t=P:problem:kreska pseudotaktowa	!	!	!LO:TX:t=P:problem:kreska pseudotaktowa	!	!	!LO:TX:t=P:problem:kreska pseudotaktowa	!	!
1BB	.	.	in	1d	.	.	1g	.	.	1b	.	.
=76-	=76-	=76-	=76-	=76-	=76-	=76-	=76-	=76-	=76-	=76-	=76-	=76-
(<1C	.	.	prae-	1e	.	-gnanſ	0g	.	in	1a	.	in
1.D)	.	.	.	1.d	.	dat	.	.	.	1.a	.	prae-
!	!	!	!	!	!	!	!LO:TX:t=P:problem:kreska pseudotaktowa	!	!	!	!	!
.	.	.	.	.	.	.	1f#X	.	prae-	.	.	.
!LO:TX:t=P:problem:kreska pseudotaktowa	!	!	!	!LO:TX:t=P:problem:kreska pseudotaktowa	!	!	!	!	!	!LO:TX:t=P:problem:kreska pseudotaktowa	!	!
2D/	.	.	-mi-	2d\	.	in	.	.	.	2a\	.	-mi-
=77-	=77-	=77-	=77-	=77-	=77-	=77-	=77-	=77-	=77-	=77-	=77-	=77-
0GGny,<	.	.	-um	0d	.	prae-	0g	.	-mi-	0b	.	-u(m)
!LO:TX:t=P:problem:kreska pseudotaktowa	!	!	!	!LO:TX:t=P:problem:kreska pseudotaktowa	!	!	!LO:TX:t=P:problem:kreska pseudotaktowa	!	!	!LO:TX:t=P:problem:kreska pseudotaktowa	!	!
1G	.	.	se	1d	.	-mi-	1g	.	-u(m)	1b	.	Se
=78-	=78-	=78-	=78-	=78-	=78-	=78-	=78-	=78-	=78-	=78-	=78-	=78-
!	!	!	!	!LO:TX:t=P:problem:kreska pseudotaktowa	!	!	!	!	!	!	!	!
0D	.	.	re-	0.d	.	-u(m)	1.fny	.	Se	1.a	.	Re-
.	.	.	.	.	.	.	2e\	.	Re-	2g/	.	.
2C/	.	.	.	.	.	.	2f\	.	.	2a\	.	.
!LO:TX:t=P:problem:kreska pseudotaktowa	!	!	!	!	!	!	!LO:TX:a:t=P:problem:# above	!	!	!	!	!
!	!	!	!	!	!	!	!LO:TX:t=P:problem:kreska pseudotaktowa	!	!	!LO:TX:t=P:problem:kreska pseudotaktowa	!	!
2BB/	.	.	.	.	.	.	2g#X\	.	.	2b\	.	.
=79-	=79-	=79-	=79-	=79-	=79-	=79-	=79-	=79-	=79-	=79-	=79-	=79-
1.AA	.	.	.	1.c	.	Se	1.a	.	.	1.cc	.	.
2BB/	.	.	.	2d\	.	.	4gny\	.	.	2b\	.	.
.	.	.	.	.	.	.	4f\	.	.	.	.	.
!	!	!	!	!	!	!	!	!	!	!LO:TX:t=P:problem:kreska pseudotaktowa	!	!
2C/	.	.	.	2e\	.	.	2e\	.	.	1a	.	.
!LO:TX:t=P:problem:kreska pseudotaktowa	!	!	!	!	!	!	!LO:TX:t=P:problem:kreska pseudotaktowa	!	!	!	!	!
2D/	.	.	.	4d\	.	.	2f\	.	.	.	.	.
!	!	!	!	!LO:TX:t=P:problem:kreska pseudotaktowa	!	!	!	!	!	!	!	!
.	.	.	.	4c\	.	.	.	.	.	.	.	.
=80-	=80-	=80-	=80-	=80-	=80-	=80-	=80-	=80-	=80-	=80-	=80-	=80-
1E	#	.	.	1B	.	Re-	1g#X	.	-gnans	1g#X	.	-gnanſ
1E	.	.	-gnans	1B	.	-gnanſ	1e	.	dat	1g#	.	.
!LO:TX:t=P:problem:kreska pseudotaktowa	!	!	!	!LO:TX:t=P:problem:kreska pseudotaktowa	!	!	!LO:TX:t=P:problem:kreska pseudotaktowa	!	!	!LO:TX:t=P:problem:kreska pseudotaktowa	!	!
1D	.	.	dat	1d	.	dat	1f	.	in	1a	.	in
=81-	=81-	=81-	=81-	=81-	=81-	=81-	=81-	=81-	=81-	=81-	=81-	=81-
1AA	.	.	in	1c	.	in	0e	.	prae-	0a	.	prae-
1.E	.	.	prae-	1.B	.	prae-	.	.	.	.	.	.
.	.	.	.	.	.	.	1e	.	-mi-	1g#X	.	-mi-
2E\	.	.	-mi-	2B\	.	-mi-	.	.	.	.	.	.
=82-	=82-	=82-	=82-	=82-	=82-	=82-	=82-	=82-	=82-	=82-	=82-	=82-
!LO:TX:t=P:problem:kreska pseudotaktowa	!	!	!	!LO:TX:t=P:problem:kreska pseudotaktowa	!	!	!LO:TX:t=P:problem:kreska pseudotaktowa	!	!	!LO:TX:t=P:problem:kreska pseudotaktowa	!	!
0.AA;;	.	.	-um	0.A;;	.	-u(m)	0.e;;	.	-u(m)	0.a;;	.	-u(m)
=83||	=83||	=83||	=83||	=83||	=83||	=83||	=83||	=83||	=83||	=83||	=83||	=83||
*M3/1	*	*	*	*M3/1	*	*	*M3/1	*	*	*M3/1	*	*
!LO:SIC:v:l:s=U	!	!	!	!LO:SIC:v:l:s=U	!	!	!LO:SIC:v:l:s=U	!	!	!LO:SIC:v:l:s=U	!	!
!LO:TX:t=P:problem:przed kluczem inicjał V	!	!	!	!LO:TX:t=P:problem:przed kluczem inicjał V	!	!	!LO:TX:t=P:problem:przed kluczem inicjał V	!	!	!LO:TX:t=P:problem:przed kluczem inicjał Z	!	!
1AA	.	6 V-	.	1A	6 V-	.	1e	6 V-	.	1ee	6 V-	.
1AA	.	-ni	.	1A	-ni	.	1e	-ni	.	1cc	-ni	.
!LO:TX:t=P:problem:kreska pseudotaktowa	!	!	!	!LO:TX:t=P:problem:kreska pseudotaktowa	!	!	!LO:TX:t=P:problem:kreska pseudotaktowa	!	!	!LO:TX:t=P:problem:kreska pseudotaktowa	!	!
1E	.	Tri-	.	1G	Tri-	.	1e	Tri-	.	1b	Tri-	.
=84-	=84-	=84-	=84-	=84-	=84-	=84-	=84-	=84-	=84-	=84-	=84-	=84-
0BB	.	-no-	.	1F#X	-no-	.	0d	-no-	.	0dd	-no-	.
.	.	.	.	1G	.	.	.	.	.	.	.	.
!LO:TX:t=P:problem:kreska pseudotaktowa	!	!	!	!LO:TX:t=P:problem:kreska pseudotaktowa	!	!	!LO:TX:t=P:problem:kreska pseudotaktowa	!	!	!LO:TX:t=P:problem:kreska pseudotaktowa	!	!
1C	.	-q(ue)	.	1A	.	.	1e	-q(ue)	.	1cc	.	.
=85-	=85-	=85-	=85-	=85-	=85-	=85-	=85-	=85-	=85-	=85-	=85-	=85-
!	!	!	!	!LO:PB:g=original	!	!	!	!	!	!	!	!
1D	.	Do-	.	1A	-q(ue)	.	1f	Do-	.	1cc	-q(ue)	.
1.E	.	.	.	1.A	Do-	.	1.e	.	.	1.b	Do-	.
!LO:TX:t=P:problem:kreska pseudotaktowa	!	!	!	!LO:TX:t=P:problem:kreska pseudotaktowa	!	!	!LO:TX:t=P:problem:kreska pseudotaktowa	!	!	!LO:SIC:v:custos:a	!	!
!	!	!	!	!	!	!	!	!	!	!LO:TX:t=P:problem:kreska pseudotaktowa	!	!
2E\	.	-mi-	.	2G/	-mi-	.	2e\	-mi-	.	2b\	-mi-	.
=86-	=86-	=86-	=86-	=86-	=86-	=86-	=86-	=86-	=86-	=86-	=86-	=86-
!	!	!	!	!	!	!	!	!	!	!LO:PB:g=original	!	!
0AA	.	-no	.	0A	-no	.	0e	-no	.	0a	-no	.
!LO:TX:t=P:problem:kreska pseudotaktowa	!	!	!	!LO:TX:t=P:problem:kreska pseudotaktowa	!	!	!LO:TX:t=P:problem:kreska pseudotaktowa	!	!	!LO:TX:t=P:problem:kreska pseudotaktowa	!	!
!	!	!	!	!	!	!	!LO:SIC:v:custos:g	!	!	!	!	!
1A	.	Sit	.	1A	Sit	.	1e	Sit	.	1cc	Sit	.
=87-	=87-	=87-	=87-	=87-	=87-	=87-	=87-	=87-	=87-	=87-	=87-	=87-
!	!	!	!	!	!	!	!LO:PB:g=original	!	!	!	!	!
!	!	!	!	!	!	!	!LO:SIC:v:l:s=sem	!	!	!LO:SIC:v:l:s=sem	!	!
1.E	.	Sem-	.	1.G	Sem-	.	1.g	Sim-	.	1.b	Sim-	.
2F\	.	pi-	.	2A/	-pi-	.	2f\	-pi-	.	2a\	-pi-	.
!LO:TX:t=P:problem:kreska pseudotaktowa	!	!	!	!LO:TX:t=P:problem:kreska pseudotaktowa	!	!	!LO:TX:t=P:problem:kreska pseudotaktowa	!	!	!LO:TX:t=P:problem:kreska pseudotaktowa	!	!
1G	.	-ter-	.	1B	-ter-	.	1d	-ter-	.	1gny	-ter-	.
=88-	=88-	=88-	=88-	=88-	=88-	=88-	=88-	=88-	=88-	=88-	=88-	=88-
1E	.	-na	.	1B	-na	.	1e	-na	.	1g	-na	.
!	!	!	!	!	!	!	!	!	!	!LO:TX:a:t=P:problem:# above	!	!
1.BB	.	glo-	.	1.B	glo-	.	1.e	glo-	.	1.f#X	glo-	.
!LO:TX:t=P:problem:kreska pseudotaktowa	!	!	!	!LO:TX:t=P:problem:kreska pseudotaktowa	!	!	!LO:TX:t=P:problem:kreska pseudotaktowa	!	!	!LO:TX:t=P:problem:kreska pseudotaktowa	!	!
2BB/	.	-ri-	.	2B\	-ri-	.	2d#X\	-ri-	.	2f#/	-ri-	.
=89-	=89-	=89-	=89-	=89-	=89-	=89-	=89-	=89-	=89-	=89-	=89-	=89-
0E,<	.	-a	.	0B	-a	.	0e	-a	.	0e	-a	.
!LO:TX:t=P:problem:kreska pseudotaktowa	!	!	!	!LO:TX:t=P:problem:kreska pseudotaktowa	!	!	!LO:TX:t=P:problem:kreska pseudotaktowa	!	!	!LO:TX:t=P:problem:kreska pseudotaktowa	!	!
1E	.	qui	.	1G	qui	.	1e	qui	.	1b	qui	.
=90-	=90-	=90-	=90-	=90-	=90-	=90-	=90-	=90-	=90-	=90-	=90-	=90-
0G	.	Vi-	.	0G	Vi-	.	0dny	Vi-	.	0b	Vi-	.
!LO:SIC:v:custos:D	!	!	!	!	!	!	!	!	!	!	!	!
!LO:TX:t=P:problem:kreska pseudotaktowa	!	!	!	!LO:TX:t=P:problem:kreska pseudotaktowa	!	!	!LO:TX:t=P:problem:kreska pseudotaktowa	!	!	!LO:TX:t=P:problem:kreska pseudotaktowa	!	!
1E	.	-ta(m)	.	1G	-ta(m)	.	1e	-ta(m)	.	1cc	-ta(m)	.
=91-	=91-	=91-	=91-	=91-	=91-	=91-	=91-	=91-	=91-	=91-	=91-	=91-
!LO:PB:g=original	!	!	!	!	!	!	!	!	!	!LO:TX:t=P:problem:kreska pseudotaktowa	!	!
1.D	.	Si-	.	(<1.A	Si-	.	1.f	Si-	.	0.dd	Si-	.
2E\	.	.	.	2G/)	.	.	2e\	.	.	.	.	.
!LO:TX:a:t=P:problem:# above	!	!	!	!LO:TX:b:t=P:problem:# below	!	!	!	!	!	!	!	!
!LO:TX:t=P:problem:kreska pseudotaktowa	!	!	!	!LO:TX:t=P:problem:kreska pseudotaktowa	!	!	!	!	!	!	!	!
1F#X	.	-ne	.	1F#X	-ne	.	2d\	.	.	.	.	.
!	!	!	!	!	!	!	!LO:TX:t=P:problem:kreska pseudotaktowa	!	!	!	!	!
.	.	.	.	.	.	.	2c/	.	.	.	.	.
=92-	=92-	=92-	=92-	=92-	=92-	=92-	=92-	=92-	=92-	=92-	=92-	=92-
!	!	!	!	!	!	!	!	!	!	!LO:TX:t=P:problem:kreska pseudotaktowa	!	!
1.G	.	Si-	.	(<1.B	Si-	.	1.B	.	.	0.dd	-ne	.
2A\	.	.	.	2A/)	.	.	2c/	.	.	.	.	.
!LO:TX:t=P:problem:kreska pseudotaktowa	!	!	!	!LO:TX:t=P:problem:kreska pseudotaktowa	!	!	!	!	!	!	!	!
1B	.	-ne	.	1G	-ne	.	2d\	.	.	.	.	.
!	!	!	!	!	!	!	!LO:TX:t=P:problem:kreska pseudotaktowa	!	!	!	!	!
.	.	.	.	.	.	.	2e\	.	.	.	.	.
=93-	=93-	=93-	=93-	=93-	=93-	=93-	=93-	=93-	=93-	=93-	=93-	=93-
0A	.	ter-	.	0A	ter-	.	1f	-ne	.	0dd	ter-	.
.	.	.	.	.	.	.	2e\	.	.	.	.	.
.	.	.	.	.	.	.	2d\	.	.	.	.	.
!LO:TX:t=P:problem:kreska pseudotaktowa	!	!	!	!LO:TX:t=P:problem:kreska pseudotaktowa	!	!	!	!	!	!	!	!
1A	.	-mi-	.	1A	-mi-	.	2.e\	ter-	.	2cc\	.	.
!	!	!	!	!	!	!	!	!	!	!LO:TX:t=P:problem:kreska pseudotaktowa	!	!
.	.	.	.	.	.	.	.	.	.	2cc\	-mi-	.
!	!	!	!	!	!	!	!LO:TX:t=P:problem:kreska pseudotaktowa	!	!	!	!	!
.	.	.	.	.	.	.	4e\	-mi-	.	.	.	.
=94-	=94-	=94-	=94-	=94-	=94-	=94-	=94-	=94-	=94-	=94-	=94-	=94-
0D	.	-no	.	1.A	-no	.	0f	-no	.	1.dd	-no	.
.	.	.	.	2F#X/	no-	.	.	.	.	2a\	no-	.
!LO:TX:t=P:problem:kreska pseudotaktowa	!	!	!	!	!	!	!LO:TX:t=P:problem:kreska pseudotaktowa	!	!	!	!	!
1BB	.	no-	.	2B\	-bis	.	1f	no-	.	2dd\	-bis	.
!	!	!	!	!LO:TX:t=P:problem:kreska pseudotaktowa	!	!	!	!	!	!LO:TX:t=P:problem:kreska pseudotaktowa	!	!
.	.	.	.	2A/	do-	.	.	.	.	2cc\	do-	.
=95-	=95-	=95-	=95-	=95-	=95-	=95-	=95-	=95-	=95-	=95-	=95-	=95-
0E	.	-bis	.	1.G	-net	.	0e	-bis	.	1.b	-net	.
.	.	.	.	2G/	no-	.	.	.	.	2b\	no-	.
!LO:TX:t=P:problem:kreska pseudotaktowa	!	!	!	!	!	!	!LO:TX:t=P:problem:kreska pseudotaktowa	!	!	!	!	!
1C	.	no-	.	2c\	-bis	.	1e	do-	.	2ee\	-bis	.
!	!	!	!	!LO:TX:t=P:problem:kreska pseudotaktowa	!	!	!	!	!	!LO:TX:t=P:problem:kreska pseudotaktowa	!	!
.	.	.	.	2B\	.	.	.	.	.	2dd\	do-	.
=96-	=96-	=96-	=96-	=96-	=96-	=96-	=96-	=96-	=96-	=96-	=96-	=96-
!	!	!	!	!	!	!	!LO:TX:t=P:problem:kreska pseudotaktowa	!	!	!	!	!
1.Fny	.	-bis	.	1.A	do-	.	0.f	-net	.	1.cc	-net	.
!	!	!	!	!	!	!	!	!	!	!LO:TX:t=P:problem:ćwierćnuty z białymi główkami połączone belką	!	!
!	!	!	!	!	!	!	!	!	!	!LO:N:vis=2	!	!
2E\	.	do-	.	4B\	.	.	.	.	.	4dd\	.	.
!	!	!	!	!	!	!	!	!	!	!LO:N:vis=2	!	!
.	.	.	.	4c\	.	.	.	.	.	4ee\	.	.
!LO:TX:t=P:problem:kreska pseudotaktowa	!	!	!	!LO:TX:t=P:problem:kreska pseudotaktowa	!	!	!	!	!	!LO:TX:t=P:problem:kreska pseudotaktowa	!	!
1D	.	-net	.	1d	-net	.	.	.	.	1ff	.	.
=97-	=97-	=97-	=97-	=97-	=97-	=97-	=97-	=97-	=97-	=97-	=97-	=97-
1E	.	in	.	1c	in	.	1g	in	.	1ee	in	.
1.G	.	Pat-	.	1.c	Pat-	.	1.g	Pat-	.	1.dd	Pat-	.
!LO:TX:t=P:problem:kreska pseudotaktowa	!	!	!	!LO:TX:t=P:problem:kreska pseudotaktowa	!	!	!LO:TX:t=P:problem:kreska pseudotaktowa	!	!	!LO:TX:t=P:problem:kreska pseudotaktowa	!	!
2G\	.	-ri-	.	2B\	-ri-	.	2g\	-ri-	.	2dd\	-ri-	.
=98-	=98-	=98-	=98-	=98-	=98-	=98-	=98-	=98-	=98-	=98-	=98-	=98-
0C	.	-a	.	0c	-a	.	0g	-a	.	1.cc	-a	.
.	.	.	.	.	.	.	.	.	.	2e/	no-	.
!LO:TX:t=P:problem:kreska pseudotaktowa	!	!	!	!LO:TX:t=P:problem:kreska pseudotaktowa	!	!	!LO:TX:t=P:problem:kreska pseudotaktowa	!	!	!	!	!
1C#X	.	No-	.	[1A	No-	.	1e	no-	.	2a\	-bis	.
!	!	!	!	!	!	!	!	!	!	!LO:TX:t=P:problem:kreska pseudotaktowa	!	!
.	.	.	.	.	.	.	.	.	.	2g/	do-	.
=99-	=99-	=99-	=99-	=99-	=99-	=99-	=99-	=99-	=99-	=99-	=99-	=99-
!	!	!	!	!	!	!	!	!	!	!LO:SIC:v:s=1.f#	!	!
0D	.	-bis	.	1.A]	.	.	0f#X	-bis	.	1.fny	-net	.
.	.	.	.	2Fny/	-bis	.	.	.	.	2a\	no-	.
!LO:TX:t=P:problem:kreska pseudotaktowa	!	!	!	!	!	!	!LO:TX:t=P:problem:kreska pseudotaktowa	!	!	!	!	!
1BB	.	no-	.	2B\	no-	.	1f#	do-	.	2dd\	-bis	.
!	!	!	!	!LO:TX:t=P:problem:kreska pseudotaktowa	!	!	!	!	!	!LO:TX:t=P:problem:kreska pseudotaktowa	!	!
.	.	.	.	2A/	-bis	.	.	.	.	2cc\	do-	.
=100-	=100-	=100-	=100-	=100-	=100-	=100-	=100-	=100-	=100-	=100-	=100-	=100-
!	!	!	!	!LO:TX:a:t=P:problem:# above	!	!	!LO:TX:t=P:problem:kreska pseudotaktowa	!	!	!	!	!
1.E	.	-bis	.	1G#X	do-	.	0.g#X	-net	.	1.b	-net	.
.	.	.	.	1B	-net	.	.	.	.	.	.	.
2D/	.	.	.	.	.	.	.	.	.	4cc\	.	.
.	.	.	.	.	.	.	.	.	.	4dd\	.	.
2Cny/	.	do-	.	2c\	no-	.	.	.	.	2ee\	.	.
!LO:TX:t=P:problem:kreska pseudotaktowa	!	!	!	!LO:TX:t=P:problem:kreska pseudotaktowa	!	!	!	!	!	!LO:TX:t=P:problem:kreska pseudotaktowa	!	!
2BB/	.	-net	.	2d\	-bis	.	.	.	.	2dd\	.	.
=101-	=101-	=101-	=101-	=101-	=101-	=101-	=101-	=101-	=101-	=101-	=101-	=101-
1AA	.	in	.	2e\	do-	.	1a	in	.	2cc\	in	.
.	.	.	.	2e\	-net	.	.	.	.	2dd\	.	.
1.E	.	Pat-	.	1.e	in	.	1.a	Pat-	.	1.b	Pat-	.
!LO:TX:t=P:problem:kreska pseudotaktowa	!	!	!	!LO:TX:t=P:problem:kreska pseudotaktowa	!	!	!LO:TX:t=P:problem:kreska pseudotaktowa	!	!	!LO:TX:t=P:problem:kreska pseudotaktowa	!	!
2E\	.	-ri-	.	2e\	Pat-	.	2gny\	-ri-	.	2b\	-ri-	.
=102-	=102-	=102-	=102-	=102-	=102-	=102-	=102-	=102-	=102-	=102-	=102-	=102-
!	!	!	!	!	!	!	!	!	!	!LO:TX:a:t=P:problem:# above	!	!
0AA	.	-a	.	0e	-ri-	.	0a	-a	.	0cc#X	-a	.
*	*	*	*	*col	*	*	*	*	*	*	*	*
!LO:TX:t=P:problem:kreska pseudotaktowa	!	!	!	!LO:TX:t=P:problem:kreska pseudotaktowa	!	!	!LO:TX:t=P:problem:kreska pseudotaktowa	!	!	!LO:TX:t=P:problem:kreska pseudotaktowa	!	!
1D	.	a-	.	1d	-a	.	1f#X	a-	.	1dd	A-	.
=103-	=103-	=103-	=103-	=103-	=103-	=103-	=103-	=103-	=103-	=103-	=103-	=103-
!	!	!	!	!	!	!	!LO:TX:t=P:problem:kreska pseudotaktowa	!	!	!	!	!
0.E	.	-men	.	1d	.	.	0.e	-men	.	0.g#X	-men	.
.	.	.	.	2c\	a-	.	.	.	.	.	.	.
.	.	.	.	2B\	.	.	.	.	.	.	.	.
*	*	*	*	*Xcol	*	*	*	*	*	*	*	*
.	.	.	.	0c	-men	.	.	.	.	.	.	.
=104-	=104-	=104-	=104-	=104-	=104-	=104-	=104-	=104-	=104-	=104-	=104-	=104-
0.E	.	A-	.	.	.	.	1e	a-	.	1a	A-	.
!	!	!	!	!	!	!	!	!	!	!LO:SIC:v:s=2g#	!	!
.	.	.	.	2B\	a-	.	1.e	.	.	2gny/	.	.
.	.	.	.	2A\	.	.	.	.	.	2f/	.	.
!	!	!	!	!	!	!	!	!	!	!LO:TX:b:t=P:problem:# below	!	!
.	.	.	.	1B	.	.	.	.	.	1g#X	.	.
.	.	.	.	.	.	.	2d\	.	.	.	.	.
=105-	=105-	=105-	=105-	=105-	=105-	=105-	=105-	=105-	=105-	=105-	=105-	=105-
0.AA;;	.	-men	.	0.A;;	-men.	.	0.c#X;;	-men	.	0.e;;	-men.	.
!LO:LB:g=original	!	!	!	!LO:LB:g=original	!	!	!LO:LB:g=original	!	!	!LO:LB:g=original	!	!
==	==	==	==	==	==	==	==	==	==	==	==	==
*-	*-	*-	*-	*-	*-	*-	*-	*-	*-	*-	*-	*-
!!!system-decoration: [(s1,s2,s3,s4)]
!!!RDF**kern: < = below
!!!RDF**kern: > = above
!!!AIN: 1 alto 1 bass 1 soprn 1 tenor
!!!ENC: Marta Chmielewska
!!!END: 2021-03-31
!!!ENC: Kamil Watkowski
!!!END: 2021-03-11
